**kern	**kern
*part1	*part1
*staff2	*staff1
*I"Piano	*
*clefF4	*clefG2
*k[b-]	*k[b-]
=1	=1
4C	8b-L 8dd
.	8a 8cc
8r	8gJ 8b-
4C	8gL 8b-
.	8f 8a
8r	8eJ 8g
=	=
*	*^
8FL	[4.f	4.f
8c	.	.
8AJ	.	.
4F	4f]	4f
8r	8g	8e
*	*v	*v
=	=
8CL 8E	4e 4g
8E 8G	.
8EJ 8G	8e 8g
8CL 8E	8eL 8g
8E 8G	8f 8a
8EJ 8G	8gJ 8b-
=	=
8CL 8F	4.a 4.cc
8F 8A	.
8FJ 8A	.
8CL 8F	4f 4a
8F 8A	.
8FJ 8A	8f 8a
=	=
8GL 8d	4bn
8d 8f	.
8dJ 8f	8b
8GL 8d	8ffL
8d 8f	8dd
8dJ 8f	8bJ
=	=
4.c 4.e	4.cc
4c; 4e	4cc;
8r	8dd 8ff
=	=
4BB-	8ddL 8ff
.	8cc 8ee
8r	8b-J 8dd
4BB-	8b-L 8dd
.	8a 8cc
8r	8gJ 8b-
=	=
4r	4.g [4.b-
8r	.
4.BB- 4.B-	4g 4b-]
.	8b- 8dd
=	=
*-	*-
!!!system-decoration: {(s1,s2)}
